plugins/plugin-git/che-plugin-git-ext-git/src/main/resources/org/eclipse/che/ide/ext/git/client/controls/remotes.svg

<?xml version="1.0" encoding="UTF-8" standalone="no"?>
<!--

    Copyright (c) 2012-2016 Codenvy, S.A.
    All rights reserved. This program and the accompanying materials
    are made available under the terms of the Eclipse Public License v1.0
    which accompanies this distribution, and is available at
    http://www.eclipse.org/legal/epl-v10.html

    Contributors:
      Codenvy, S.A. - initial API and implementation

-->
<svg xmlns="http://www.w3.org/2000/svg" enable-background="new 0 0 32 32" xml:space="preserve" height="32px" width="32px" version="1.1" y="0px" x="0px" xmlns:cc="http://creativecommons.org/ns#" xmlns:dc="http://purl.org/dc/elements/1.1/" viewBox="0 0 32 32"><g id="_x32_3_1_" transform="matrix(1.875,0,0,1.875,-13.915254,-14.029828)"><path id="_x3C_Path_x3E__37_" d="m20.25,14.02c-2.069,0-3.75,0.562-3.75,1.25v0.23h-1v-0.432c-0.808,0.567-2.281,0.831-3.75,0.831s-2.943-0.263-3.75-0.831v1.662c0,0.689,1.681,1.25,3.75,1.25s3.75-0.561,3.75-1.25v-0.23h1v0.227c0,0.688,1.681,1.25,3.75,1.25s3.75-0.562,3.75-1.25v-1.457c0-0.689-1.681-1.25-3.75-1.25zm-8.5,4.584c1.469,0,2.942-0.264,3.75-0.83v1.66c0,0.688-1.681,1.249-3.75,1.249s-3.75-0.561-3.75-1.249v-1.66c0.807,0.566,2.281,0.83,3.75,0.83zm0-7.287c2.069,0,3.75,0.561,3.75,1.25v1.457c0,0.689-1.681,1.25-3.75,1.25s-3.75-0.561-3.75-1.25v-1.457c0-0.689,1.681-1.25,3.75-1.25zm0,0.547c-0.75,0-1.569,0.074-2.292,0.281-0.185,0.053-0.827,0.272-0.911,0.422l-0.001,0.093c0.838,0.362,2.023,0.533,3.204,0.533,1.184,0,2.371-0.171,3.21-0.535v-0.052c-0.092-0.188-0.733-0.407-0.918-0.46-0.723-0.208-1.543-0.282-2.292-0.282zm8.5,6.738c1.469,0,2.942-0.264,3.75-0.831v1.662c0,0.689-1.681,1.25-3.75,1.25s-3.75-0.561-3.75-1.25v-1.662c0.806,0.567,2.281,0.831,3.75,0.831zm0-4.036c0.749,0,1.569,0.074,2.292,0.281,0.185,0.053,0.826,0.272,0.918,0.46l-0.001,0.052c-0.839,0.364-2.025,0.535-3.209,0.535-1.181,0-2.366-0.17-3.204-0.532l0.001-0.093c0.084-0.15,0.727-0.369,0.911-0.422,0.723-0.206,1.542-0.281,2.292-0.281z" fill-rule="evenodd" clip-rule="evenodd" fill="#808080"/></g></svg>

<?xml version="1.0" encoding="utf-8"?>
<!--

    Copyright (c) 2012-2016 Codenvy, S.A.
    All rights reserved. This program and the accompanying materials
    are made available under the terms of the Eclipse Public License v1.0
    which accompanies this distribution, and is available at
    http://www.eclipse.org/legal/epl-v10.html

    Contributors:
      Codenvy, S.A. - initial API and implementation

-->
<!DOCTYPE svg PUBLIC "-//W3C//DTD SVG 1.1//EN" "http://www.w3.org/Graphics/SVG/1.1/DTD/svg11.dtd">
<svg version="1.1" xmlns="http://www.w3.org/2000/svg" xmlns:xlink="http://www.w3.org/1999/xlink" x="0px" y="0px" width="32px"
	 height="32px" viewBox="0 0 32 32" enable-background="new 0 0 32 32" xml:space="preserve">
<g id="_x32_3_1_">
	<path id="_x3C_Path_x3E__37_" fill-rule="evenodd" clip-rule="evenodd" fill="#808080" d="M20.25,14.02
		c-2.069,0-3.75,0.562-3.75,1.25v0.23h-1v-0.432c-0.808,0.567-2.281,0.831-3.75,0.831S8.807,15.636,8,15.068v1.662
		c0,0.689,1.681,1.25,3.75,1.25s3.75-0.561,3.75-1.25V16.5h1v0.227c0,0.688,1.681,1.25,3.75,1.25S24,17.415,24,16.727V15.27
		C24,14.581,22.319,14.02,20.25,14.02L20.25,14.02z M11.75,18.604c1.469,0,2.942-0.264,3.75-0.83v1.66
		c0,0.688-1.681,1.249-3.75,1.249S8,20.122,8,19.434v-1.66C8.807,18.34,10.281,18.604,11.75,18.604L11.75,18.604z M11.75,11.317
		c2.069,0,3.75,0.561,3.75,1.25v1.457c0,0.689-1.681,1.25-3.75,1.25S8,14.713,8,14.024v-1.457C8,11.878,9.681,11.317,11.75,11.317
		L11.75,11.317z M11.75,11.864c-0.75,0-1.569,0.074-2.292,0.281c-0.185,0.053-0.827,0.272-0.911,0.422L8.546,12.66
		c0.838,0.362,2.023,0.533,3.204,0.533c1.184,0,2.371-0.171,3.21-0.535v-0.052c-0.092-0.188-0.733-0.407-0.918-0.46
		C13.319,11.938,12.499,11.864,11.75,11.864L11.75,11.864z M20.25,18.602c1.469,0,2.942-0.264,3.75-0.831v1.662
		c0,0.689-1.681,1.25-3.75,1.25s-3.75-0.561-3.75-1.25v-1.662C17.306,18.338,18.781,18.602,20.25,18.602L20.25,18.602z
		 M20.25,14.566c0.749,0,1.569,0.074,2.292,0.281c0.185,0.053,0.826,0.272,0.918,0.46l-0.001,0.052
		c-0.839,0.364-2.025,0.535-3.209,0.535c-1.181,0-2.366-0.17-3.204-0.532l0.001-0.093c0.084-0.15,0.727-0.369,0.911-0.422
		C18.681,14.641,19.5,14.566,20.25,14.566z"/>
</g>
</svg>
